lib/preview/nrk-logo-preview-nrk-p1-title-below.svg

<svg width="35" height="31" viewBox="0 0 35 31" fill="none" xmlns="http://www.w3.org/2000/svg">
<path d="M0 13.0052V1.00631H3.93719V13.0052H0ZM9.29381 2.916L11.5581 13.0052H7.24917L4.54549 1.00631H6.96218C7.51635 0.999116 8.05406 1.19447 8.4745 1.55561C8.89562 1.9016 9.18495 2.38192 9.29381 2.916ZM12.1495 13.0052V1.00631H16.0867V13.0052H12.1495ZM19.0605 5.56932C18.6362 5.57345 18.2188 5.46245 17.8525 5.24818C17.4912 5.03934 17.1911 4.73918 16.9823 4.37782C16.7678 4.01155 16.6568 3.59398 16.661 3.16954C16.6561 2.74768 16.7672 2.3326 16.9823 1.96965C17.1933 1.61221 17.4931 1.31531 17.8525 1.10774C18.2189 0.893721 18.6362 0.782733 19.0605 0.786602C19.4822 0.78206 19.8971 0.893147 20.2602 1.10774C20.616 1.31713 20.9127 1.61378 21.122 1.96965C21.3368 2.3327 21.4479 2.74771 21.4433 3.16954C21.4473 3.59395 21.3363 4.01145 21.122 4.37782C20.9149 4.73759 20.6179 5.0375 20.2602 5.24818C19.8971 5.4632 19.4819 5.57431 19.0599 5.56932H19.0605ZM22.0516 13.0052V1.00631H25.9892V13.0052H22.0516ZM30.9737 7.56345C30.9848 7.57509 31.0693 7.7131 31.2272 7.97749C31.3851 8.24188 31.5906 8.5799 31.8439 8.99151C32.0974 9.40292 32.3649 9.83948 32.6463 10.3012C32.9278 10.763 33.1926 11.1996 33.4408 11.611C33.6881 12.0224 33.9697 12.4871 34.2857 13.0052H29.9598C29.6893 12.5658 29.4441 12.1687 29.2245 11.8138C29.0048 11.4589 28.7713 11.0758 28.5238 10.6646C28.2758 10.2537 28.0306 9.85376 27.7882 9.46468C27.5458 9.07561 27.3375 8.73483 27.1633 8.44228C26.9883 8.14953 26.8671 7.95234 26.7997 7.85076C26.6325 7.59866 26.5336 7.30751 26.5127 7.00576C26.5294 6.71615 26.6226 6.4362 26.7828 6.19433C26.8504 6.08166 26.9743 5.88165 27.1545 5.59435C27.3348 5.30705 27.546 4.96627 27.7882 4.57194C28.0304 4.17761 28.2756 3.77482 28.5238 3.36359C28.772 2.95236 29.0056 2.56645 29.2245 2.20592C29.4445 1.84577 29.6897 1.4458 29.9598 1.00603H34.2857L30.9396 6.46472C30.8361 6.62678 30.7777 6.81356 30.7706 7.00576C30.7818 7.20754 30.8522 7.40154 30.9731 7.56345H30.9737Z" fill="white"/>
<path d="M8.14525 19.7712C7.93756 19.4507 7.6709 19.1725 7.35944 18.9514C7.01227 18.7083 6.6267 18.5255 6.21882 18.4106C5.72366 18.2739 5.21149 18.2086 4.69787 18.2165H0V30.2147H1.7744V25.9055H4.83306C5.52342 25.916 6.20469 25.7471 6.81024 25.4154C7.3904 25.0938 7.87226 24.6206 8.20438 24.0464C8.56032 23.4126 8.73843 22.6944 8.71982 21.9678C8.72133 21.5751 8.67595 21.1837 8.58463 20.8018C8.49688 20.4361 8.34834 20.0877 8.14525 19.7712ZM6.5737 23.4129C6.34661 23.7693 6.01227 24.0444 5.61887 24.1987C5.1415 24.3794 4.63354 24.4655 4.1233 24.4522H1.7744V19.6867H4.35991C4.85375 19.6681 5.34527 19.7634 5.79634 19.9653C6.15517 20.1386 6.44851 20.4231 6.63283 20.7764C6.8281 21.1727 6.9238 21.6107 6.91166 22.0523C6.93117 22.5288 6.8139 23.0009 6.5737 23.4129Z" fill="white"/>
<path d="M13.0967 18.2165C12.8261 18.3517 12.5697 18.4841 12.3275 18.6137C12.0853 18.7432 11.8488 18.8643 11.618 18.977C11.3867 19.0896 11.1528 19.2023 10.9164 19.315C10.68 19.4276 10.4378 19.529 10.1898 19.6191C9.94191 19.7096 9.6773 19.7997 9.39584 19.8892L9.76729 21.3256C10.1053 21.2242 10.4123 21.1229 10.6883 21.0215C10.9587 20.9226 11.2238 20.8098 11.4826 20.6835C11.7362 20.5596 11.9897 20.4244 12.243 20.2779L12.2517 20.2729V30.215H14.0089V18.2168L13.0967 18.2165Z" fill="white"/>
</svg>

<svg xmlns="http://www.w3.org/2000/svg" viewBox="0 0 35 31"><path fill="#fff" d="M0 13.005V1.006h3.937v12H0ZM9.294 2.916l2.264 10.09H7.25l-2.704-12h2.417a2.276 2.276 0 0 1 1.513.55c.42.346.71.826.819 1.36Zm2.855 10.09v-12h3.938v12h-3.938Zm6.912-7.437a2.382 2.382 0 0 1-2.4-2.4 2.301 2.301 0 0 1 .321-1.2 2.41 2.41 0 0 1 3.278-.861c.356.21.653.506.862.862.215.363.326.778.321 1.2a2.35 2.35 0 0 1-.321 1.208 2.4 2.4 0 0 1-.862.87 2.302 2.302 0 0 1-1.2.321Zm2.99 7.436V1.006h3.938v12h-3.937Zm8.923-5.442c.01.012.095.15.253.414.158.265.364.603.617 1.015a315.246 315.246 0 0 1 1.597 2.619c.247.411.529.876.845 1.394H29.96c-.27-.44-.516-.836-.736-1.191-.22-.355-.453-.738-.7-1.15-.248-.41-.493-.81-.736-1.2-.242-.388-.45-.73-.625-1.022a17.97 17.97 0 0 0-.363-.591 1.747 1.747 0 0 1-.287-.845c.016-.29.11-.57.27-.812.067-.112.191-.312.371-.6a182.106 182.106 0 0 0 1.37-2.23l.7-1.158.736-1.2h4.326L30.94 6.465a1.08 1.08 0 0 0-.17.54c.012.203.082.397.203.558ZM8.145 19.771a3.018 3.018 0 0 0-.786-.82 3.771 3.771 0 0 0-1.14-.54 5.403 5.403 0 0 0-1.521-.195H0v11.999h1.774v-4.31h3.06a3.99 3.99 0 0 0 1.976-.49 3.661 3.661 0 0 0 1.394-1.369 4.034 4.034 0 0 0 .516-2.078 4.932 4.932 0 0 0-.135-1.166 3.36 3.36 0 0 0-.44-1.03Zm-1.571 3.642a1.997 1.997 0 0 1-.955.786c-.478.18-.985.266-1.496.253H1.774v-4.765H4.36a3.22 3.22 0 0 1 1.436.278c.36.174.653.458.837.811.195.397.29.835.279 1.276.02.477-.098.949-.338 1.36ZM13.097 18.216c-.27.136-.527.268-.77.398a21.7 21.7 0 0 1-.709.363c-.231.113-.465.225-.702.338a8.2 8.2 0 0 1-.726.304c-.248.09-.513.18-.794.27l.371 1.437c.338-.102.645-.203.921-.305.27-.098.536-.211.795-.338.253-.123.507-.259.76-.405l.009-.005v9.942h1.757V18.217h-.912Z"/></svg>
